X:1
T:Title
%%score { ( 1 4 ) | ( 2 3 ) }
L:1/8
M:3/4
K:F
V:1 treble nm="Grand Piano"
V:4 treble 
V:2 bass 
V:3 bass 
V:1
 z2 z2[Q:1/4=108] C>F | [FA]4 [GB]>d | [Ac]4 [DF]>G | [FA]3 E [B,G]2 | [A,F]4 [A,C]>C | %5
 [B,D]3 E [DF]2 | [CA]3 [CG] [DF]2 | [EG]6- | [EG]2 z2 [FA]>[GB] | [Ac]4 [GB]A | [CA]3 G [A,F]2 | %11
 [A,F]2 [CG]2 [FA]2 |[M:4/4] [DB]6 [Fd]>d |[M:3/4] [Ac]3 F [GB]2 | [FA] A3 G2 | [A,F]6- | %16
 [A,F]4 z2 | z2 z2 B2- | B6 | B A3 A2 | [FA]6 | [DFd]3 [Fd] [Fd]2 | =B A3 B2 | [Ec]4 [F=B]2 | %24
[M:9/8] [CGB]6- [CGB]2- [CGB]/ z/ |[M:3/4] z2 z2 B2- | B6 | B A3 A2 | [FA]6 | [DG]3 [DFA] [DGB]2 | %30
 [CFA]<[CFA]- [CFA]2 [B,CG]2 | [A,CF]6- | [A,CF]6 |] %33
V:2
 z2 z2 A,>C | F,2 F,2 z z/[K:treble] B/ | F,2 F,,2 z z/ D/ | C,2 z C C,2 | F,2 F,2 z z/ A,/ | %5
 B,,2 z B, B,,2 | F,3 E, D,2 | C,2 E,2 G,2 | C2 B,2 A,>G, | F,2 F,2 z F | F,2 z B, F,2 | %11
 F,2 E,2 D,2 |[M:4/4] B,,6 z z/[K:treble] B/ |[M:3/4][K:bass] F,2 z C D,2 | z C3 B,2 | %15
 F,2 C,2 A,,2 | F,,4 z2 | A3 G G2 | [C,C]3 [E,C] [E,C]2 | G F3 F2 | A,,3 C, F,2 | %21
 D,3 [D,A,] [D,A,]2 | [G,F] [G,DF]3 [G,F]2 | G,4- [D,G,]2 |[M:9/8] E,6- E,2- E,/ z/ | %25
[M:3/4][K:treble] A3 G G2 | [C,C]3 [E,C][K:treble] [G,C]2 | G F3 F2 | A,,3 C, F,2 | B,,3 A,, G,,2 | %30
 C,<C,- C,2 C,2 | F,6- | F,6 |] %33
V:3
 z2 z2 F,2 | z2 z2 B,,2[K:treble] | z2 z2 D,2 | z2 C,2 z2 | z2 z2 F,2 | z2 B,,2 z2 | x6 | x6 | x6 | %9
 z2 z2 F,2 | z2 F,2 z2 | x6 |[M:4/4] z4 z2 B,,2[K:treble] |[M:3/4][K:bass] z2 F,2 z2 | C,6 | x6 | %16
 x6 | x6 | x6 | x6 | x6 | x6 | x6 | C,4 z2 |[M:9/8] x9 |[M:3/4][K:treble] x6 | x4[K:treble] x2 | %27
 x6 | x6 | x6 | x6 | x6 | x6 |] %33
V:4
 x6 | x6 | x6 | x6 | x6 | x6 | x6 | x6 | x6 | x6 | x6 | x6 |[M:4/4] x8 |[M:3/4] x6 | x6 | x6 | x6 | %17
 c3 B z2 | E3 E E2 | x6 | C3 C C2 | x6 | x6 | x6 |[M:9/8] x9 |[M:3/4] c3 B z2 | E3 E E2 | x6 | %28
 C3 C C2 | x6 | x6 | x6 | x6 |] %33

